Newaita-dark/apps/22/gaupol.svg

<?xml version="1.0" encoding="UTF-8"?>
<svg xmlns="http://www.w3.org/2000/svg" xmlns:xlink="http://www.w3.org/1999/xlink" width="22pt" height="22pt" viewBox="0 0 22 22" version="1.1">
<defs>
<linearGradient id="linear0" gradientUnits="userSpaceOnUse" x1="254" y1="233.5" x2="254" y2="254.666672" gradientTransform="matrix(0.0429729,0,0,0.0429729,-0.00000262285,9.239165)">
<stop offset="0" style="stop-color:rgb(0%,0%,0%);stop-opacity:0.27451;"/>
<stop offset="1" style="stop-color:rgb(0%,0%,0%);stop-opacity:0;"/>
</linearGradient>
<radialGradient id="radial0" gradientUnits="userSpaceOnUse" cx="450.908936" cy="189.579361" fx="450.908936" fy="189.579361" r="21.166656" gradientTransform="matrix(0.000000119742,-0.0537161,-0.0966889,-0.0000000698078,36.522014,43.721791)">
<stop offset="0" style="stop-color:rgb(0%,0%,0%);stop-opacity:0.313725;"/>
<stop offset="0.222222" style="stop-color:rgb(0%,0%,0%);stop-opacity:0.27451;"/>
<stop offset="1" style="stop-color:rgb(0%,0%,0%);stop-opacity:0;"/>
</radialGradient>
<radialGradient id="radial1" gradientUnits="userSpaceOnUse" cx="450.908936" cy="189.579361" fx="450.908936" fy="189.579361" r="21.166656" gradientTransform="matrix(-0.000000119742,0.0537161,0.0966889,0.0000000698078,-14.578108,-5.175142)">
<stop offset="0" style="stop-color:rgb(0%,0%,0%);stop-opacity:0.313725;"/>
<stop offset="0.222222" style="stop-color:rgb(0%,0%,0%);stop-opacity:0.27451;"/>
<stop offset="1" style="stop-color:rgb(0%,0%,0%);stop-opacity:0;"/>
</radialGradient>
<radialGradient id="radial2" gradientUnits="userSpaceOnUse" cx="450.908936" cy="189.579361" fx="450.908936" fy="189.579361" r="21.166656" gradientTransform="matrix(-0.000000119742,-0.0537161,0.0966889,-0.0000000698078,-14.578108,43.721791)">
<stop offset="0" style="stop-color:rgb(0%,0%,0%);stop-opacity:0.313725;"/>
<stop offset="0.222222" style="stop-color:rgb(0%,0%,0%);stop-opacity:0.27451;"/>
<stop offset="1" style="stop-color:rgb(0%,0%,0%);stop-opacity:0;"/>
</radialGradient>
<radialGradient id="radial3" gradientUnits="userSpaceOnUse" cx="450.908936" cy="189.579361" fx="450.908936" fy="189.579361" r="21.166656" gradientTransform="matrix(0.000000119742,0.0537161,-0.0966889,0.0000000698078,36.522013,-5.175142)">
<stop offset="0" style="stop-color:rgb(0%,0%,0%);stop-opacity:0.313725;"/>
<stop offset="0.222222" style="stop-color:rgb(0%,0%,0%);stop-opacity:0.27451;"/>
<stop offset="1" style="stop-color:rgb(0%,0%,0%);stop-opacity:0;"/>
</radialGradient>
<linearGradient id="linear1" gradientUnits="userSpaceOnUse" x1="254" y1="233.5" x2="254" y2="-168.666672" gradientTransform="matrix(0.0429729,0,0,0.0429729,0,9.239163)">
<stop offset="0" style="stop-color:rgb(25.882353%,25.882353%,25.882353%);stop-opacity:1;"/>
<stop offset="1" style="stop-color:rgb(38.039216%,38.039216%,38.039216%);stop-opacity:1;"/>
</linearGradient>
<linearGradient id="linear2" gradientUnits="userSpaceOnUse" x1="960" y1="575.117188" x2="960" y2="1455.117188" gradientTransform="matrix(0.264583,0,0,0.264583,0,-236.166428)">
<stop offset="0" style="stop-color:rgb(74.117647%,74.117647%,74.117647%);stop-opacity:1;"/>
<stop offset="1" style="stop-color:rgb(87.843137%,87.843137%,87.843137%);stop-opacity:1;"/>
</linearGradient>
</defs>
<g id="surface1">
<path style=" stroke:none;fill-rule:nonzero;fill:url(#linear0);" d="M 3.523438 19.273438 L 18.417969 19.273438 L 18.417969 20.183594 L 3.523438 20.183594 Z M 3.523438 19.273438 "/>
<path style=" stroke:none;fill-rule:nonzero;fill:url(#radial0);" d="M 18.417969 19.273438 L 20.238281 19.273438 L 20.238281 18.363281 L 18.417969 18.363281 Z M 18.417969 19.273438 "/>
<path style=" stroke:none;fill-rule:nonzero;fill:url(#radial1);" d="M 3.523438 19.273438 L 1.707031 19.273438 L 1.707031 20.183594 L 3.523438 20.183594 Z M 3.523438 19.273438 "/>
<path style=" stroke:none;fill-rule:nonzero;fill:url(#radial2);" d="M 3.523438 19.273438 L 1.707031 19.273438 L 1.707031 18.363281 L 3.523438 18.363281 Z M 3.523438 19.273438 "/>
<path style=" stroke:none;fill-rule:nonzero;fill:url(#radial3);" d="M 18.417969 19.273438 L 20.238281 19.273438 L 20.238281 20.183594 L 18.417969 20.183594 Z M 18.417969 19.273438 "/>
<path style=" stroke:none;fill-rule:nonzero;fill:url(#linear1);" d="M 2.5 1.992188 L 19.328125 1.992188 C 19.707031 1.992188 20.011719 2.296875 20.011719 2.671875 L 20.011719 18.589844 C 20.011719 18.96875 19.707031 19.273438 19.328125 19.273438 L 2.5 19.273438 C 2.125 19.273438 1.820312 18.96875 1.820312 18.589844 L 1.820312 2.671875 C 1.820312 2.296875 2.125 1.992188 2.5 1.992188 Z M 2.5 1.992188 "/>
<path style=" stroke:none;fill-rule:nonzero;fill:rgb(0%,0%,0%);fill-opacity:0.196078;" d="M 2.730469 19.273438 C 2.226562 19.273438 1.820312 18.867188 1.820312 18.363281 L 1.820312 18.25 C 1.820312 18.753906 2.226562 19.160156 2.730469 19.160156 L 19.101562 19.160156 C 19.605469 19.160156 20.011719 18.753906 20.011719 18.25 L 20.011719 18.363281 C 20.011719 18.867188 19.605469 19.273438 19.101562 19.273438 Z M 2.730469 19.273438 "/>
<path style=" stroke:none;fill-rule:nonzero;fill:rgb(100%,100%,100%);fill-opacity:0.643137;" d="M 2.730469 1.992188 C 2.226562 1.992188 1.820312 2.398438 1.820312 2.902344 L 1.820312 3.015625 C 1.820312 2.511719 2.226562 2.105469 2.730469 2.105469 L 19.101562 2.105469 C 19.605469 2.105469 20.011719 2.511719 20.011719 3.015625 L 20.011719 2.902344 C 20.011719 2.398438 19.605469 1.992188 19.101562 1.992188 Z M 2.730469 1.992188 "/>
<path style=" stroke:none;fill-rule:nonzero;fill:rgb(12.941177%,12.941177%,12.941177%);fill-opacity:1;" d="M 2.5 1.925781 C 2.089844 1.925781 1.753906 2.261719 1.753906 2.671875 L 1.753906 18.589844 C 1.753906 19.003906 2.089844 19.335938 2.5 19.335938 L 19.328125 19.335938 C 19.742188 19.335938 20.074219 19.003906 20.074219 18.589844 L 20.074219 2.671875 C 20.074219 2.261719 19.742188 1.925781 19.328125 1.925781 Z M 2.5 2.054688 L 19.328125 2.054688 C 19.671875 2.054688 19.945312 2.328125 19.945312 2.671875 L 19.945312 18.589844 C 19.945312 18.933594 19.671875 19.207031 19.328125 19.207031 L 2.5 19.207031 C 2.15625 19.207031 1.882812 18.933594 1.882812 18.589844 L 1.882812 2.671875 C 1.882812 2.328125 2.15625 2.054688 2.5 2.054688 Z M 2.5 2.054688 "/>
<path style="fill-rule:nonzero;fill:url(#linear2);stroke-width:3;stroke-linecap:round;stroke-linejoin:round;stroke:rgb(12.941177%,12.941177%,12.941177%);stroke-opacity:1;stroke-miterlimit:4;" d="M 253.975747 -84.012509 C 183.618829 -84.012509 126.987873 -41.562017 126.987873 11.251121 C 126.987873 35.521531 138.986727 57.610331 158.712116 74.426907 C 158.712116 93.970495 158.803017 113.695884 158.984818 136.148285 C 158.712116 148.874343 169.347464 148.874343 179.891912 138.238995 C 201.071708 117.059199 206.343932 111.786975 216.97928 106.514751 C 232.795951 106.514751 233.159553 106.514751 253.975747 106.514751 C 324.332664 106.514751 380.96362 63.973359 380.96362 11.251121 C 380.96362 -41.562017 324.332664 -84.012509 253.975747 -84.012509 Z M 253.975747 -84.012509 " transform="matrix(0.0429729,0,0,0.0429729,0,9.239163)"/>
</g>
</svg>

<svg xmlns="http://www.w3.org/2000/svg" width="22pt" height="22pt" viewBox="0 0 22 22"><defs><linearGradient id="a" gradientUnits="userSpaceOnUse" x1="254" y1="233.5" x2="254" y2="254.667" gradientTransform="matrix(.04297 0 0 .04297 0 9.24)"><stop offset="0" stop-opacity=".275"/><stop offset="1" stop-opacity="0"/></linearGradient><radialGradient id="b" gradientUnits="userSpaceOnUse" cx="450.909" cy="189.579" fx="450.909" fy="189.579" r="21.167" gradientTransform="matrix(0 -.05372 -.09669 0 36.522 43.722)"><stop offset="0" stop-opacity=".314"/><stop offset=".222" stop-opacity=".275"/><stop offset="1" stop-opacity="0"/></radialGradient><radialGradient id="c" gradientUnits="userSpaceOnUse" cx="450.909" cy="189.579" fx="450.909" fy="189.579" r="21.167" gradientTransform="matrix(0 .05372 .09669 0 -14.578 -5.175)"><stop offset="0" stop-opacity=".314"/><stop offset=".222" stop-opacity=".275"/><stop offset="1" stop-opacity="0"/></radialGradient><radialGradient id="d" gradientUnits="userSpaceOnUse" cx="450.909" cy="189.579" fx="450.909" fy="189.579" r="21.167" gradientTransform="matrix(0 -.05372 .09669 0 -14.578 43.722)"><stop offset="0" stop-opacity=".314"/><stop offset=".222" stop-opacity=".275"/><stop offset="1" stop-opacity="0"/></radialGradient><radialGradient id="e" gradientUnits="userSpaceOnUse" cx="450.909" cy="189.579" fx="450.909" fy="189.579" r="21.167" gradientTransform="matrix(0 .05372 -.09669 0 36.522 -5.175)"><stop offset="0" stop-opacity=".314"/><stop offset=".222" stop-opacity=".275"/><stop offset="1" stop-opacity="0"/></radialGradient><linearGradient id="f" gradientUnits="userSpaceOnUse" x1="254" y1="233.5" x2="254" y2="-168.667" gradientTransform="matrix(.04297 0 0 .04297 0 9.24)"><stop offset="0" stop-color="#424242"/><stop offset="1" stop-color="#616161"/></linearGradient><linearGradient id="g" gradientUnits="userSpaceOnUse" x1="960" y1="575.117" x2="960" y2="1455.117" gradientTransform="matrix(.26458 0 0 .26458 0 -236.166)"><stop offset="0" stop-color="#bdbdbd"/><stop offset="1" stop-color="#e0e0e0"/></linearGradient></defs><path d="M3.523 19.273h14.895v.91H3.523zm0 0" fill="url(#a)"/><path d="M18.418 19.273h1.82v-.91h-1.82zm0 0" fill="url(#b)"/><path d="M3.523 19.273H1.707v.91h1.816zm0 0" fill="url(#c)"/><path d="M3.523 19.273H1.707v-.91h1.816zm0 0" fill="url(#d)"/><path d="M18.418 19.273h1.82v.91h-1.82zm0 0" fill="url(#e)"/><path d="M2.5 1.992h16.828c.379 0 .684.305.684.68V18.59a.682.682 0 0 1-.684.683H2.5a.681.681 0 0 1-.68-.683V2.672a.68.68 0 0 1 .68-.68zm0 0" fill="url(#f)"/><path d="M2.73 19.273a.909.909 0 0 1-.91-.91v-.113c0 .504.407.91.91.91h16.372c.503 0 .91-.406.91-.91v.113c0 .504-.407.91-.91.91zm0 0" fill-opacity=".196"/><path d="M2.73 1.992a.909.909 0 0 0-.91.91v.114c0-.504.407-.91.91-.91h16.372c.503 0 .91.406.91.91v-.114a.909.909 0 0 0-.91-.91zm0 0" fill="#fff" fill-opacity=".643"/><path d="M2.5 1.926a.749.749 0 0 0-.746.746V18.59c0 .414.336.746.746.746h16.828a.744.744 0 0 0 .746-.746V2.672a.746.746 0 0 0-.746-.746zm0 .129h16.828c.344 0 .617.273.617.617V18.59a.614.614 0 0 1-.617.617H2.5a.614.614 0 0 1-.617-.617V2.672c0-.344.273-.617.617-.617zm0 0" fill="#212121"/><path d="M253.976-84.013c-70.357 0-126.988 42.451-126.988 95.264 0 24.27 11.999 46.36 31.724 63.176 0 19.543.091 39.269.273 61.721-.273 12.726 10.362 12.726 20.907 2.091 21.18-21.18 26.452-26.452 37.087-31.724h36.997c70.357 0 126.988-42.542 126.988-95.264 0-52.813-56.631-95.264-126.988-95.264zm0 0" transform="matrix(.04297 0 0 .04297 0 9.24)" fill="url(#g)" stroke-width="3" stroke-linecap="round" stroke-linejoin="round" stroke="#212121"/></svg>
